X: 21543
T: Kildare Fancy, The
R: hornpipe
M: 4/4
K: Dmajor
|:d>B|A>FD>F A>Fd>B|(3ABA F>A f>ed>c|B>AB>f g>ef>d (3efe (3dcB A2 d>B|
A>FD>F A>Fd>B|(3ABA F>A f>ed>c|B>AB>f g>ef>d|e>c (3ABc d2:|
|:d>e|f>dc>d (3Bcd A>F|D>dc>d f>dc>d|e>A (3AAA f>A (3AAA|(3gfe (3dcB A2 d>e|
f>dc>d (3Bcd A>F|D>dc>d f>dc>d|e>Af>A g>Af>A|e>c (3ABc d2:|

